actions/symbolic/mail-message-new-symbolic.svg

<?xml version="1.0" encoding="UTF-8" standalone="no"?>
<svg
   height="16"
   width="16"
   version="1.1"
   id="svg11"
   sodipodi:docname="mail-message-new-symbolic.svg"
   inkscape:version="1.2.2 (b0a8486541, 2022-12-01)"
   xmlns:inkscape="http://www.inkscape.org/namespaces/inkscape"
   xmlns:sodipodi="http://sodipodi.sourceforge.net/DTD/sodipodi-0.dtd"
   xmlns="http://www.w3.org/2000/svg"
   xmlns:svg="http://www.w3.org/2000/svg">
  <sodipodi:namedview
     id="namedview29948"
     pagecolor="#ffffff"
     bordercolor="#000000"
     borderopacity="0.25"
     inkscape:showpageshadow="2"
     inkscape:pageopacity="0.0"
     inkscape:pagecheckerboard="0"
     inkscape:deskcolor="#d1d1d1"
     showgrid="false"
     inkscape:zoom="22.627417"
     inkscape:cx="10.54031"
     inkscape:cy="10.518213"
     inkscape:window-width="1278"
     inkscape:window-height="1005"
     inkscape:window-x="632"
     inkscape:window-y="14"
     inkscape:window-maximized="0"
     inkscape:current-layer="svg11" />
  <defs
     id="defs15" />
  <path
     id="rect8320"
     style="color:#000000;fill:#555761;fill-rule:evenodd;-inkscape-stroke:none;paint-order:markers fill stroke"
     d="M 4,2 C 2.9006519,2 2,2.9006519 2,4 v 8 c 0,1.099348 0.9006519,2 2,2 h 8 c 1.099348,0 2,-0.900652 2,-2 V 7 h -1 v 5 c 0,0.562648 -0.437352,1 -1,1 H 4 C 3.4373515,13 3,12.562648 3,12 V 4 C 3,3.4373515 3.4373515,3 4,3 H 9 V 2 Z"
     sodipodi:nodetypes="ssssssccssssssccs" />
  <path
     d="m 12.787279,1 c -0.175987,-4.608e-5 -0.344685,0.070292 -0.468515,0.1953468 l -0.730803,0.7355685 2.481542,2.4815413 0.73396,-0.730821 c 0.262051,-0.2620506 0.262052,-0.6749795 0,-0.9370296 L 13.255001,1.1961406 C 13.131521,1.0709639 12.963102,1.0003802 12.787279,1 Z M 10.88264,2.6386173 5.0000002,8.5228418 5,10.999619 H 7.4783655 L 13.360211,5.1185691 Z"
     fill="#666666"
     font-family="sans-serif"
     font-weight="400"
     overflow="visible"
     style="line-height:normal;font-variant-ligatures:normal;font-variant-position:normal;font-variant-caps:normal;font-variant-numeric:normal;font-variant-alternates:normal;font-feature-settings:normal;text-indent:0;text-align:start;text-decoration-line:none;text-decoration-style:solid;text-decoration-color:#000000;text-transform:none;text-orientation:mixed;shape-padding:0;isolation:auto;mix-blend-mode:normal;fill:#555761;stroke-width:0.999992"
     white-space="normal"
     id="path7897"
     sodipodi:nodetypes="cccccscccccccc" />
  <rect
     style="fill:#ffffff;fill-opacity:1;fill-rule:evenodd;stroke:none;stroke-width:0.999995;stroke-opacity:1;-inkscape-stroke:none;paint-order:markers fill stroke;stop-color:#000000"
     id="rect11788"
     width="1"
     height="1"
     x="6.0000024"
     y="9" />
</svg>

<svg
        xmlns='http://www.w3.org/2000/svg'
        xmlns:svg='http://www.w3.org/2000/svg'
        id='svg11'
        width='16'
        height='16'>
  <path
          id='rect8320'
          color='rgb(0,0,0)'
          fill='url(#gpa:foreground) #555761'
          fill-opacity='1'
          fill-rule='evenodd'
          paint-order='markers fill stroke'
          d='M 4 2 C 2.90065 2, 2 2.90065, 2 4 L 2 12 C 2 13.0993, 2.90065 14, 4 14 L 12 14 C 13.0993 14, 14 13.0993, 14 12 L 14 7 L 13 7 L 13 12 C 13 12.5626, 12.5626 13, 12 13 L 4 13 C 3.43735 13, 3 12.5626, 3 12 L 3 4 C 3 3.43735, 3.43735 3, 4 3 L 9 3 L 9 2 Z'
          class="foreground">
  </path>
  <path
          id='path7897'
          font-family='sans-serif'
          font-weight='400'
          fill='url(#gpa:foreground) #555761'
          fill-opacity='1'
          fill-rule='nonzero'
          stroke-width='0.999992'
          overflow='visible'
          d='M 12.7873 1 C 12.6113 0.999954, 12.4426 1.07029, 12.3188 1.19535 L 11.588 1.93092 L 14.0695 4.41246 L 14.8035 3.68164 C 15.0655 3.41958, 15.0655 3.00666, 14.8035 2.74461 L 13.255 1.19614 C 13.1315 1.07096, 12.9631 1.00038, 12.7873 1 Z M 10.8826 2.63862 L 5 8.52284 L 5 10.9996 L 7.47837 10.9996 L 13.3602 5.11857 Z'
          class="foreground"
          style='mix-blend-mode: normal; isolation: auto'>
  </path>
</svg>
